!!!!SEGMENT: pl-kk--kk-i-69--003_anonim--protexisti-pro-festo-et-in-terra.krn
!!!cenid: 17xx:2284
!!!COM: Anonim
!!!COM-rismID: pe30004985
!!!CDT:
!!!CNT:
!!!OPR: Protexisti pro festo
!!!OTL: Et in terra
!!!OMV: 003
!!!PDT:
!!!AGN: Sacred; Mass
!!!SMS-siglum: PL-Kk
!!!SMS-shelfmark: Kk.I.69
!!!SMS-shelfwork: 001-003 M
!!!SMS-variant:
!!!SMS-altvar:
!!!NIFC-rismSourceID: 1001154789
!!!NIFC-rismChildID: 1001154789
!!!NIFC-islandoraID: pl-kk:15747
!!!URL-pdf-islandora: https://repozytorium.nifc.pl/islandora/object/pl-kk%3A15747/datastream/PDF/view
!!!URL-scan: https://polish.musicsources.pl/pl/lokalizacje/galeria/rekopisy/7324/1 @EN{Scan on Polish Music Sources Website} @PL{Skany w portalu Dziedzictwo Muzyki Polskiej w otwartym dostępie}
!!!ONB-nifc: UWAGA: części Mszy: 1. Protexisti me, 2. Kyrie, 3. Et in terra, 4. Alleluia, 5. Patrem, 6. Posuisti Domine, 7. Sanctus, 8. Benedictus, 9. Agnus Dei, 10. Dona nobis, 11. Deo gratias
!!!AIN: 1 empty 2 tenor
!!!key:
**kern	**text	**kern	**text	**kern	**text
*part3	*part3	*part2	*part2	*part1	*part1
*staff3	*staff3	*staff2	*staff2	*staff1	*staff1
*Iempty	*	*Itenor	*	*Itenor	*
*I"Baſso	*	*I"Tenore Secundo	*	*I"Tenore Primo	*
*I'B	*	*I'T 2	*	*I'T 1	*
*clefF4	*	*clefC4	*	*clefC4	*
*k[]	*	*k[]	*	*k[]	*
*C:	*	*C:	*	*C:	*
*M3/2	*	*M3/2	*	*M3/2	*
*2\right	*	*2\right	*	*2\right	*
=1	=1	=1	=1	=1	=1
!	!	!	!	!LO:TX:t=P:problem=all2\right&colon; global	!
2C/	Et	2G/	Et	2e\	Et
2E/	.	2G/	.	2g\	[[in]]
2D/	in	2G/	in	2f\	in
=2	=2	=2	=2	=2	=2
2C/	ter-	1G	ter-	1e	ter-
2E\	.	.	.	.	.
2G\	-ra	2B\	-ra	2d\	-ra
=3	=3	=3	=3	=3	=3
2r	.	2r	.	2r	.
2A\	pax	2d\	pax	2f\	pax
2G\	ho-	2c\	ho-	2e\	ho-
=4	=4	=4	=4	=4	=4
2.F\	-mi-	2.B\	-mi-	2.d\	-mi-
4D\	-ni-	4B\	-ni-	4d\	-ni-
2C/	-bus	2c\	-bus	2e\	-bus
=5	=5	=5	=5	=5	=5
2G\	bo-	4B\	bo-	4d\	bo-
.	.	4c\	.	4e\	.
2G\	-nae	4d\	-nae	4f\	-nae
.	.	4c\	.	4e\	.
4C/	vo-	4e\	vo-	4g\	vo-
4E/	-lun-	4c\	-lun-	4e\	-lun-
=6	=6	=6	=6	=6	=6
!LO:LB:g=original	!	!LO:LB:g=original	!	!	!
2G\	-ta-	2c\	-ta-	2e\	-ta-
2G\	-tis	2B\	-tis	2d\	-tis
2r	.	2r	.	2r	.
=7	=7	=7	=7	=7	=7
!	!	!	!	!LO:LB:g=original	!
1.G	Lau-	2d\	Lau-	2f\	Lau-
.	.	2B\	.	2d\	.
.	.	2d\	.	2f\	.
=8	=8	=8	=8	=8	=8
2c\	-da-	2c\	-da-	2e\	-da-
2G\	-mus	2d\	-mus	2f\	-mus
2C/	te	2e\	te	2g\	te
=9	=9	=9	=9	=9	=9
2C/	be-	4e\	be-	4g\	be-
.	.	4c\	.	4e\	.
4C/	-ne-	4f\	-ne-	4a\	-ne-
4E\	-di-	4e\	-di-	4g\	-di-
4F\	-ci-	4d\	-ci-	4f\	-ci-
4F#X\	-mus	4c\	-mus	4e\	-mus
=10	=10	=10	=10	=10	=10
2G\	te	2B\	te	2d\	te
2G\	a-	4B\	a-	4d\	a-
.	.	4c\	.	4e\	.
2G\	-do-	4d\	-do-	4f\	-do-
.	.	4B\	.	4d\	.
=11	=11	=11	=11	=11	=11
!	!	!LO:LB:g=original	!	!	!
4c\	-ra-	4c\	-ra-	4e\	-ra-
4B\	.	4d\	.	4f\	.
4c\	-mus	4c\	-mus	4e\	-mus
4G\	.	4d\	.	4f\	.
4E\	te	2e\	te	2g\	te
4C\	.	.	.	.	.
=12	=12	=12	=12	=12	=12
!LO:LB:g=original	!	!	!	!LO:LB:g=original	!
2C/	glo-	2f\	glo-	2a\	glo-
2C/	-ri-	2e\	-ri-	2g\	-ri-
2BB/	-fi-	2d\	-fi-	2f\	-fi-
=13	=13	=13	=13	=13	=13
2E\	-ca-	2c\	-ca-	2e\	-ca-
2D\	.	2d\	.	2f\	.
2C\	.	2e\	.	2g\	.
=14	=14	=14	=14	=14	=14
2F\	.	2d\	.	2f\	.
2G\	.	2c\	.	2e\	.
2GG/	-mus	2B\	-mus	2d\	mus
=15	=15	=15	=15	=15	=15
1.C	te.	1.c	te.	1.e	te
=16	=16	=16	=16	=16	=16
2.C/	Gra-	2.e\	Gra-	2.g\	Gra-
4D/	-ti-	4d\	-ti-	4f\	-ti-
2E\	-as	2c\	-as	2e\	-as
=17	=17	=17	=17	=17	=17
!	!	!LO:LB:g=original	!	!	!
2.G\	a-	2.d\	a-	2.f\	a-
4G\	-gi-	4c\	-gi-	4e\	-gi-
2G\	-mus	2B\	-mus	2d\	-mus
=18	=18	=18	=18	=18	=18
!LO:LB:g=original	!	!	!	!	!
2C/	a-	4c\	a-	4e\	a-
.	.	8d\L	.	8f\L	.
.	.	8e\J	.	8g\J	.
2BB/	-gi-	2d\	-gi-	2f\	-gi-
2C/	-mus	2c\	-mus	2e\	-mus
=19	=19	=19	=19	=19	=19
!	!	!	!	!LO:LB:g=original	!
2G\	ti-	2c\	ti-	2e\	ti-
2G\	-bi	2B\	-bi	2d\	-bi
2r	.	2r	.	2r	.
=20	=20	=20	=20	=20	=20
1A	pro-	1c	pro-	1f	pro-
2G\	-pter	2c\	-pter	2e\	-pter
=21	=21	=21	=21	=21	=21
2F\	ma-	1B	ma-	1d	ma-
2D/	.	.	.	.	.
2C/	-gnam	2G/	-gnam	2e\	-gnam
=22	=22	=22	=22	=22	=22
2.G\	glo-	2.B\	glo-	2.d\	glo-
4G\	-ri-	4c\	-ri-	4e\	-ri-
2G\	-am	2d\	-am	2f\	-am
=23	=23	=23	=23	=23	=23
!	!	!LO:LB:g=original	!	!	!
2.E\	glo-	2.c\	glo-	2.e\	glo-
4D\	-ri-	4d\	-ri-	4f\	-ri-
2C/	-am	2e\	-am	2g\	-am
=24	=24	=24	=24	=24	=24
!LO:LB:g=original	!	!	!	!	!
2F\	tu-	2d\	tu-	2f\	tu-
2G\	.	2c\	.	2e\	.
2GG/	.	2B\	.	2d\	.
=25	=25	=25	=25	=25	=25
1.C	-am	1.c	-am	1.e	am
=26||	=26||	=26||	=26||	=26||	=26||
!LO:N:vis=0	!	!	!	!LO:LB:g=original	!
0.r	.	1.r	.	4e\	Do-
.	.	.	.	4d\	.
.	.	.	.	4c\	.
.	.	.	.	4d\	.
.	.	.	.	4e\	-mi-
.	.	.	.	4f\	-ne
=27-	=27	=27	=27	=27	=27
.	.	4B\	Do-	1g	De-
.	.	4A\	.	.	.
.	.	4G\	.	.	.
.	.	4A\	.	.	.
.	.	4B\	-mi-	2g\	-us
.	.	4c\	-ne	.	.
=28-	=28	=28	=28	=28	=28
!LO:N:vis=1	!	!	!	!	!
1.r	.	2.d\	De-	2.f\	De-
.	.	4c\	-us	4f\	-us
.	.	4B\	rex	4f\	rex
.	.	4A\	cae-	4f\	cae-
=29	=29	=29	=29	=29	=29
!	!	!LO:LB:g=original	!	!	!
4C/	Do-	1G	-les-	1e	-les-
4D/	.	.	.	.	.
4E/	.	.	.	.	.
4D/	.	.	.	.	.
4E/	-mi-	2G/	-tis	2e\	-tis
4C/	-ne	.	.	.	.
=30	=30	=30	=30	=30	=30
1G	De-	2B\	do-	2d\	do-
.	.	4B\	-mi-	4d\	-mi-
.	.	4B\	-ne	4d\	-ne
2G\	-us	4d\	De-	4f\	De-
.	.	4d\	-us	4f\	-us
=31	=31	=31	=31	=31	=31
!	!	!	!	!LO:LB:g=original	!
4G\	De-	4d\	De-	4f\	De-
4A\	-us	4d\	-us	4f\	-us
2B\	rex	2d\	rex	2f\	rex
2G\	cae-	2d\	cae-	2f\	cae-
=32	=32	=32	=32	=32	=32
!LO:LB:g=original	!	!	!	!	!
1c	-les-	2G/	-les-	1e	-les-
.	.	2G/	-tis	.	.
2C/	-tis	2r	.	2e\	-tis
=33	=33	=33	=33	=33	=33
2r	.	2r	.	2r	.
2C/	De-	2e\	De-	2g\	De-
2D/	-us	2B\	-us	2f\	-us
=34	=34	=34	=34	=34	=34
2E\	pa-	2c\	pa-	2g\	pa-
2D\	.	2B\	.	2f\	.
2C/	-ter	2G/	-ter	2e\	-ter
=35	=35	=35	=35	=35	=35
!	!	!LO:LB:g=original	!	!	!
2F\	om-	4A\	om-	4d\	om-
.	.	4d\	.	4f\	.
2G\	-ni-	2c\	-ni-	2e\	-ni-
2G\	-po-	2B\	-po-	2d\	-po-
=36	=36	=36	=36	=36	=36
1.C	-tens	1.G;	-tnes	1.e	-tens
=37	=37	=37	=37	=37	=37
!	!	!	!	!LO:PB:g=original	!
2C/	Do-	4e\	Do-	4g\	Do-
.	.	4d\	.	4f\	.
2E/	-mi-	4c\	.	4e\	.
.	.	4d\	.	4f\	.
2C/	-ne	4e\	-mi-	4g\	-mi-
.	.	4c\	-ne	4e\	-ne
=38	=38	=38	=38	=38	=38
!LO:LB:g=original	!	!	!	!	!
1G	fi-	2d\	fi-	2f\	fi-
.	.	2c\	.	2e\	.
2G\	-li	2B\	-li	2d\	-li
=39	=39	=39	=39	=39	=39
4E\	u-	(4c\	u-	4e\	u-
4C\	.	4e\)	.	4g\	.
2F\	.	2d\	.	2f\	.
2F#X\	-ni-	2c\	-ni-	2e\	-ni-
=40	=40	=40	=40	=40	=40
2.G\	-ge-	2.B\	-ge-	2.d\	-ge-
4G\	-ni-	4B\	-ni-	4d\	-ni-
2G\	-te	2B\	-te	2d\	-te
=41	=41	=41	=41	=41	=41
!	!	!LO:PB:g=original	!	!	!
1G	Je-	2B\	Je-	2d\	Je-
.	.	2c\	.	2e\	.
2G\	-su	2d\	-su	2f\	-su
=42	=42	=42	=42	=42	=42
2E\	Je-	2c\	Je-	2g\	Je-
2D\	.	2B\	.	2f\	.
2C/	-su	2G/	-su	2e\	-su
=43	=43	=43	=43	=43	=43
!	!	!	!	!LO:LB:g=original	!
1G	Chri-	4B\	Chri-	4d\	Chri-
.	.	4c\	.	4e\	.
.	.	2d\	.	2f\	.
2F#X\	.	2c\	.	2e\	.
=44	=44	=44	=44	=44	=44
1G	-ste	1B	-ste	1d	ste
2r	.	2r	.	2r	.
=45	=45	=45	=45	=45	=45
!LO:LB:g=original	!	!	!	!	!
2.G\	Do-	4d\	Do-	4f\	Do-
.	.	4c\	.	4e\	.
.	.	4B\	.	4d\	.
4G\	-mi-	4c\	.	4e\	.
2G\	-ne	4d\	-mi-	4f\	mi-
.	.	4B\	-ne	4d\	-ne
=46	=46	=46	=46	=46	=46
4E\	De-	4c\	De-	4e\	De-
4D\	.	4d\	.	4f\	.
4C/	.	4c\	.	4e\	.
4BB/	.	4d\	.	4f\	.
2C/	-us	2e\	-us	2g\	-us
=47	=47	=47	=47	=47	=47
!	!	!LO:LB:g=original	!	!	!
1F	a-	4d\	a-	4f\	a-
.	.	4e\	.	4g\	.
.	.	4f\	.	4a\	.
.	.	4d\	.	4f\	.
2G\	-gnus	4c\	-gnus	4e\	gnus
.	.	4B\	.	4d\	.
=48	=48	=48	=48	=48	=48
4C/	De-	1c	De-	1e	De-
4D/	.	.	.	.	.
4E/	.	.	.	.	.
4F/	.	.	.	.	.
2G\	-i	2B\	-i	2d\	-i
=49	=49	=49	=49	=49	=49
!	!	!	!	!LO:LB:g=original	!
2.G\	fi-	2.d\	fi-	2.f\	Fi-
4G\	-li-	4c\	-li-	4e\	-li-
2G\	-us	2B\	-us	2d\	-us
=50	=50	=50	=50	=50	=50
2.C/	fi-	2.e\	fi-	2.g\	fi-
4D/	-li-	4d\	-li-	4f\	-li-
2E\	-us	2c\	-us	2e\	-us
=51	=51	=51	=51	=51	=51
!LO:LB:g=original	!	!	!	!	!
2F\	Pa-	4f\	Pa-	4a\	Pa-
.	.	4d\	.	4f\	.
2G\	.	2c\	.	2e\	.
2GG/	.	2B\	.	2d\	.
=52	=52	=52	=52	=52	=52
2C/	-tris	2c\	-tris,	2e\	tris
2r	.	2r	.	2r	.
4C/	Qui	4c\	Qui	4e\	qui
4D/	.	4B\	.	4f\	.
=53	=53	=53	=53	=53	=53
!	!	!LO:LB:g=original	!	!	!
2E\	tol-	2c\	tol-	2g\	tol-
4E\	-lis	2c\	-lis	4g\	-lis
4F\	.	.	.	4a\	.
4E\	pec-	4c\	pec-	4g\	pec-
4D\	.	4B\	.	4f\	.
=54	=54	=54	=54	=54	=54
!	!	!	!	!LO:LB:g=original	!
4C/	-ca-	1G	ca-	4e\	-ca-
4BB/	.	.	.	4d\	.
4C/	.	.	.	4e\	.
4D/	.	.	.	4f\	.
2E\	-ta	2c\	-ta	2g\	-ta
=55	=55	=55	=55	=55	=55
4C/	pec-	4e\	pec-	4g\	pec-
4E/	.	4c\	.	4e\	.
4G\	-ca-	4d\	-ca-	4f\	-ca-
4c\	.	4c\	.	4e\	.
4B\	-ta	4d\	-ta	4f\	-ta
4c\	.	4c\	.	4e\	.
=56	=56	=56	=56	=56	=56
1G	mun-	1B	mun-	1d	mun-
2G\	-di	2B\	-di	2d\	-di
=57	=57	=57	=57	=57	=57
!LO:LB:g=original	!	!	!	!	!
1G	mi-	4B\	mi-	4d\	mi-
.	.	4c\	.	4e\	.
.	.	4d\	.	4f\	.
.	.	4B\	.	4d\	.
2G\	-se-	4c\	-se-	4e\	-se-
.	.	4d\	.	4f\	.
=58	=58	=58	=58	=58	=58
4E\	-re-	4c\	-re-	4e\	-re-
4D\	.	4d\	.	4f\	.
4C\	.	4e\	.	4g\	.
4E\	.	4c\	.	4e\	.
4D\	-re	4d\	-re	4f\	-re
4C\	.	4e\	.	4g\	.
=59	=59	=59	=59	=59	=59
!	!	!LO:LB:g=original	!	!LO:LB:g=original	!
2F\	no-	2A\	no-	2f\	no-
2G\	.	2c\	.	2e\	.
2GG/	.	2B\	.	2d\	.
=60	=60	=60	=60	=60	=60
2C/	-bis,	2G/	-bis	2e\	-bis
2r	.	2r	.	2r	.
2C/	qui	2G/	qui	2e\	qui
=61	=61	=61	=61	=61	=61
2G\	tol-	2B\	tol-	2d\	tol-
2G\	-lis	2d\	-lis	2f\	-lis
2F\	pec-	2B\	pec-	2d\	pec-
=62	=62	=62	=62	=62	=62
4E/	-ca-	4c\	-ca-	4e\	-ca-
4D/	.	4d\	.	4f\	.
4C/	.	4c\	.	4e\	.
4BB/	.	4d\	.	4f\	.
2C/	-ta	2e\	-ta	2g\	-ta
=63	=63	=63	=63	=63	=63
!LO:LB:g=original	!	!	!	!	!
1F	mun-	4d\	mun-	4f\	mun-
.	.	4c\	.	4e\	.
.	.	4B\	.	4d\	.
.	.	4A\	.	4c\	.
2F#X\	.	4G\	.	4B\	.
.	.	4A\	.	4c\	.
=64	=64	=64	=64	=64	=64
1G	-di	1B	-di	1d	-di
2r	.	2r	.	2r	.
=65	=65	=65	=65	=65	=65
!	!	!LO:LB:g=original	!	!LO:LB:g=original	!
2.G\	su-	2.d\	su-	2.f\	su-
4G\	-sci-	4d\	-sci-	4f\	-sci-
2c\	-pe	2c\	-pe	2e\	-pe
=66	=66	=66	=66	=66	=66
*	*ij	*	*	*	*
2.G\	su-	2.B\	su-	2.d\	su-
4G\	-sci-	4B\	-sci-	4d\	-sci-
2C/	-pe	2G/	-pe	2e\	-pe
*	*Xij	*	*	*	*
=67	=67	=67	=67	=67	=67
1G	de-	2B\	de-	2d\	de-
.	.	2c\	.	2e\	.
2G\	-pre-	2d\	-pre-	2f\	-pre-
=68	=68	=68	=68	=68	=68
2C/	-ca-	2c\	-ca-	2e\	-ca-
2c\	.	2f\	.	2a\	.
2c\	-ti-	2e\	-ti-	2g\	-ti-
=69	=69	=69	=69	=69	=69
1G	-o-	2d\	-o-	2f\	-o-
.	.	2c\	.	2e\	.
2G\	-nem	2B\	-nem	2d\	-nem
=70	=70	=70	=70	=70	=70
!LO:LB:g=original	!	!	!	!	!
1.G	no-	4c\	no-	4e\	no-
.	.	4d\	.	4f\	.
.	.	2c\	.	2e\	.
.	.	2B\	.	2d\	.
=71	=71	=71	=71	=71	=71
!	!	!LO:LB:g=original	!	!LO:LB:g=original	!
2C/	-stram,	2G/	-stram	2e\	-stram
2r	.	2r	.	2r	.
4C/	qui	4e\	qui	(4g\	qui
4E/	.	4c\	.	4f\)	.
=72	=72	=72	=72	=72	=72
2G\	se-	2B\	se-	2d\	se-
2G\	-des	2B\	-des	2d\	-des
2G\	ad	2c\	ad	2e\	ad
=73	=73	=73	=73	=73	=73
2.B\	dex-	2.d\	dex-	2.f\	dex-
4B\	-te-	4d\	-te-	4f\	-te-
2c\	-ram	2G/	-ram	2e\	-ram
=74	=74	=74	=74	=74	=74
2B\	ad	2G/	ad	2d\	ad
4c\	dex-	2G/	dex-	2e\	dex-
4G\	.	.	.	.	.
4E\	-te-	4G/	-te-	4e\	-te-
4D\	-ram	4G/	-ram	4f\	-ram
=75	=75	=75	=75	=75	=75
4C/	Pa-	1c	Pa-	1e	Pa-
4D/	.	.	.	.	.
4E/	.	.	.	.	.
4F/	.	.	.	.	.
2G\	-tris	2B\	-tris	2d\	-tris,
=76	=76	=76	=76	=76	=76
!LO:LB:g=original	!	!	!	!	!
1G	mi-	1d	mi-	1f	mi-
2c\	-se-	2c\	-se-	2e\	-se-
=77	=77	=77	=77	=77	=77
!	!	!LO:LB:g=original	!	!LO:LB:g=original	!
2G\	-re-	2B\	-re-	2d\	-re-
2B\	.	2d\	.	2f\	.
2c\	-re	2c\	-re	2e\	-re
=78	=78	=78	=78	=78	=78
2F\	no-	1c	no-	4a\	no-
.	.	.	.	4f\	.
2G\	.	.	.	2e\	.
2GG/	.	2B\	.	2d\	.
=79	=79	=79	=79	=79	=79
1C	-bis,	1G	-bis	1e	-bis
2r	.	2r	.	2r	.
=80	=80	=80	=80	=80	=80
2.C/	Quo-	2.G/	Quo-	2.e\	Quo-
4D/	-ni-	4G/	-ni-	4f\	-ni-
2E\	-am	2G/	-am	2g\	-am
=81	=81	=81	=81	=81	=81
2D/	tu	2A\	tu	2f\	tu
2G\	so-	2c\	so-	2e\	so-
2GG/	-lus	2B\	-lus	2d\	-lus
=82	=82	=82	=82	=82	=82
!LO:LB:g=original	!	!	!	!	!
2.C/	san-	1G	san-	2.e\	san-
4BB/	.	.	.	4d\	.
2C/	-ctus	2G/	-ctus,	2e\	-ctus
=83	=83	=83	=83	=83	=83
!	!	!	!	!LO:LB:g=original	!
2C/	tu	2e\	tu	2g\	tu
!	!	!LO:LB:g=original	!	!	!
2F\	so-	2d\	so-	2f\	so-
2F#X\	-lus	2c\	-lus	2e\	-lus
=84	=84	=84	=84	=84	=84
2.G\	Do-	2.B\	Do-	2.d\	Do-
4G\	-mi-	4B\	-mi-	4d\	-mi-
2G\	-nus	2B\	-nus	2d\	-nus
=85	=85	=85	=85	=85	=85
2r	.	2r	.	2r	.
1G	tu	2r	.	2r	.
.	.	4B\	tu	4d\	tu
.	.	4c\	.	4e\	.
=86	=86	=86	=86	=86	=86
2B\	so-	1d	so-	1f	so-
2G\	.	.	.	.	.
2c\	-lus	2c\	-lus	2e\	-lus
=87	=87	=87	=87	=87	=87
2C/	al-	2e\	al-	2g\	al-
2D/	-tiſ-	2d\	-tiſ-	2f\	-tiſ-
4E\	-si-	2c\	-si-	2e\	-si-
4F\	.	.	.	.	.
=88	=88	=88	=88	=88	=88
1G	-mus	1B	-mus	1d	-mus
2r	.	2r	.	2r	.
=89	=89	=89	=89	=89	=89
!LO:LB:g=original	!	!LO:LB:g=original	!	!LO:PB:g=original	!
1.G	Je-	4B\	Je-	4d\	Je-
.	.	4A\	.	4c\	.
.	.	4G\	.	4B\	.
.	.	4A\	.	4c\	.
.	.	4B\	.	4d\	.
.	.	4c\	.	4e\	.
=90	=90	=90	=90	=90	=90
2G\	.	1d	.	1f	.
2B\	.	.	.	.	.
2c\	-su	2c\	-su	2e\	-su
=91	=91	=91	=91	=91	=91
1.G	Je-	2B\	Je-	2d\	Je-
.	.	2d\	.	2f\	.
.	.	2B\	.	2d\	.
=92	=92	=92	=92	=92	=92
2C/	.	1G	.	2e\	.
2D/	.	.	.	2f\	.
2E/	su	2G/	su	4e\	-su
.	.	.	.	4g\	.
=93	=93	=93	=93	=93	=93
2F\	Chri-	4A\	Chri-	4a\	Chri-
.	.	4d\	.	4f\	.
1G	.	2c\	.	2e\	.
.	.	2B\	.	2d\	.
=94	=94	=94	=94	=94	=94
1C	-ste	1c	-ste	1e	-ste,
2r	.	2r	.	2g\	Cum
=95	=95	=95	=95	=95	=95
!	!	!	!	!LO:LB:g=original	!
1.r	.	2r	.	2e\	san-
.	.	2r	.	2c\	-cto
.	.	2c\	Cum	2e\	cum
=96	=96	=96	=96	=96	=96
!	!	!LO:PB:g=original	!	!	!
2r	.	2B\	san-	2d\	san-
2r	.	2G\	-cto	2d\	-cto
2G\	cum	2B\	cum	2d\	cum
=97	=97	=97	=97	=97	=97
!LO:LB:g=original	!	!	!	!	!
2E\	San-	2c\	san-	2g\	San-
2C\	.	2G/	.	2e\	.
2E\	-cto	2c\	-cto	2g\	-cto
=98	=98	=98	=98	=98	=98
!LO:N:vis=1.	!	!	!	!	!
!LO:TX:t=P:problem=błędne wyświetlanie	!	!	!	!	!
4%5F	spi-	4f\	spi-	4a\	spi-
.	.	4e\	.	4g\	.
.	.	4d\	.	4f\	.
.	.	4e\	.	4g\	.
.	.	4d\	.	4f\	-ri-
4F#X\	-ri-	4c\	-ri-	4e\	.
=99	=99	=99	=99	=99	=99
1G	-tu	1B	-tu	1d	-tu
2G\	in	2B\	in	2d\	in
=100	=100	=100	=100	=100	=100
2.c\	glo-	2.G/	glo-	2.e\	glo-
4G\	-ri-	4c\	-ri-	4e\	-ri-
4E\	-a	4c\	-a	4e\	-a
4C/	in	4c\	in	4e\	in
=101	=101	=101	=101	=101	=101
!	!	!	!	!LO:LB:g=original	!
2.G\	glo-	2.B\	glo-	2.d\	glo-
4A\	-ri-	4A/	-ri-	4f\	-ri-
2B\	-a	2G/	-a	2f\	-a
=102	=102	=102	=102	=102	=102
2c\	De-	2G/	De-	2e\	De-
2G\	.	2d\	.	2f\	.
2E\	-i	2c\	-i	2g\	-i
=103	=103	=103	=103	=103	=103
!LO:PB:g=original	!	!	!	!	!
1G	Pa-	2d\	Pa-	2f\	Pa-
.	.	2c\	.	2e\	.
2G\	-tris	2B\	-tris	2d\	-tris
=104	=104	=104	=104	=104	=104
2C\	a-	1c	a-	1e	a-
2E\	.	.	.	.	.
2G\	.	2B\	.	2d\	.
=105	=105	=105	=105	=105	=105
1C	-men	1G	-men	1e	-men
2G\	a-	2d\	a-	2f\	a-
=106	=106	=106	=106	=106	=106
1c	-men	1c	-men	1e	-men
2G\	a-	2B\	a-	2f\	a-
=107	=107	=107	=107	=107	=107
1.C	-men.	1.G	-men.	1.e	-men.
==	==	==	==	==	==
*-	*-	*-	*-	*-	*-
!!!system-decoration: [(s1,s2,s3)]
!!!ENC: Kamil Watkowski
!!!END: 2021-08-06
!!!YEC: Copyright 2022 Narodowy Instytut Fryderyka Chopina (https://polishscores.org)
!!!YEM: License CC-BY-4.0 (https://creativecommons.org/licenses/by/4.0)
